assets/img/braze_icons/pin-01.svg

<svg fill="none" height="24" viewBox="0 0 24 24" width="24" xmlns="http://www.w3.org/2000/svg"><path clip-rule="evenodd" d="m8.32363 1c-.36165-.000031-.69768-.000061-.97283.02491-.2879.02613-.64716.08825-.97881.3081-.4393.29121-.74589.74406-.85312 1.26009-.08096.38958-.00521.74622.07745 1.02322.07901.26475.20383.57674.33818.91252l1.02259 2.55646c.01374.03435.03531.07231.04236.10889.0005.02198.00055.05213.00055.11395v2.13062c0 .06989.00099.13995-.00189.2098l-.00173.00236c-.02384.03235-.0582.07558-.12785.16265l-1.59754 1.99693c-.30906.3863-.58274.7283-.77456 1.0185-.18732.2833-.41528.6843-.4158 1.1688-.00066.6091.27627 1.1853.7523 1.5653.37867.3023.83422.3748 1.17249.4055.34637.0315.78442.0314 1.2791.0314h3.71548v6c0 .5523.4477 1 1 1s1-.4477 1-1v-6h3.7155c.4946 0 .9327.0001 1.2791-.0314.3383-.0307.7938-.1032 1.1725-.4055.476-.38.7529-.9562.7523-1.5653-.0005-.4845-.2285-.8855-.4158-1.1688-.1918-.2902-.4655-.6322-.7746-1.0185l-1.5975-1.99693c-.0437-.05457-.0882-.10867-.1296-.16501l-.0001-.00292c-.0016-.04015-.0018-.09537-.0018-.20688v-2.13062c0-.06182.0001-.09198.0006-.11395v-.00149c.0134-.03605.028-.07168.0423-.1074l1.0226-2.55647c.1344-.33578.2592-.64776.3382-.91251.0826-.277.1584-.63364.0774-1.02322-.1072-.51603-.4138-.96888-.8531-1.26009-.3316-.21985-.6909-.28197-.9788-.3081-.2751-.024971-.6112-.024941-.9728-.02491z" fill="#801ed7" fill-rule="evenodd"/></svg>

<svg width="24" height="24" viewBox="0 0 24 24" fill="none" xmlns="http://www.w3.org/2000/svg">
<path fill-rule="evenodd" clip-rule="evenodd" d="M8.32363 1C7.96198 0.999969 7.62595 0.999939 7.3508 1.02491C7.0629 1.05104 6.70364 1.11316 6.37199 1.33301C5.93269 1.62422 5.6261 2.07707 5.51887 2.5931C5.43791 2.98268 5.51366 3.33932 5.59632 3.61632C5.67533 3.88107 5.80015 4.19306 5.9345 4.52884L6.95709 7.0853C6.97083 7.11965 6.9924 7.15761 6.99945 7.19419C6.99995 7.21617 7 7.24632 7 7.30814V9.43876C7 9.50865 7.00099 9.57871 6.99811 9.64856L6.99638 9.65092C6.97254 9.68327 6.93818 9.7265 6.86853 9.81357L5.27099 11.8105C4.96193 12.1968 4.68825 12.5388 4.49643 12.829C4.30911 13.1123 4.08115 13.5133 4.08063 13.9978C4.07997 14.6069 4.3569 15.1831 4.83293 15.5631C5.2116 15.8654 5.66715 15.9379 6.00542 15.9686C6.35179 16.0001 6.78984 16 7.28452 16H11L11 22C11 22.5523 11.4477 23 12 23C12.5523 23 13 22.5523 13 22V16H16.7155C17.2101 16 17.6482 16.0001 17.9946 15.9686C18.3329 15.9379 18.7884 15.8654 19.1671 15.5631C19.6431 15.1831 19.92 14.6069 19.9194 13.9978C19.9189 13.5133 19.6909 13.1123 19.5036 12.829C19.3118 12.5388 19.0381 12.1968 18.729 11.8105L17.1315 9.81357C17.0878 9.759 17.0433 9.7049 17.0019 9.64856L17.0018 9.64564C17.0002 9.60549 17 9.55027 17 9.43876V7.30814C17 7.24632 17.0001 7.21616 17.0006 7.19419L17.0006 7.1927C17.014 7.15665 17.0286 7.12102 17.0429 7.0853L18.0655 4.52883C18.1999 4.19305 18.3247 3.88107 18.4037 3.61632C18.4863 3.33932 18.5621 2.98268 18.4811 2.5931C18.3739 2.07707 18.0673 1.62422 17.628 1.33301C17.2964 1.11316 16.9371 1.05104 16.6492 1.02491C16.3741 0.999939 16.038 0.999969 15.6764 1H8.32363Z" fill="#801ED7"/>
</svg>
